icon-themes/breeze_svg/cmd/sc_switchxformsdesignmode.svg

<svg viewBox="0 0 16 16" xmlns="http://www.w3.org/2000/svg">/&gt;<path d="m3 2v2 2h1v-2h8v7h1v-7-2zm-1 4v.875 6.625.5h.46875 9.96875 1.5625l-1.34375-.875-9.96875-6.65625zm1 2 7.84375 5.03125-7.84375-.03125z" fill="#4d4d4d"/></svg>

<svg xmlns="http://www.w3.org/2000/svg" viewBox="0 0 16 16">
     />
 <path 
     style="fill:#4d4d4d" 
     d="M 3 2 L 3 4 L 3 6 L 4 6 L 4 4 L 12 4 L 12 11 L 13 11 L 13 4 L 13 2 L 3 2 z M 2 6 L 2 6.875 L 2 13.5 L 2 14 L 2.46875 14 L 12.4375 14 L 14 14 L 12.65625 13.125 L 2.6875 6.46875 L 2 6 z M 3 8 L 10.84375 13.03125 L 3 13 L 3 8 z "
     />
 </svg>
